svgs/thin/vial-circle-check.svg

<svg xmlns="http://www.w3.org/2000/svg" viewBox="0 0 512 512"><!--! Font Awesome Pro 6.4.0 by @fontawesome - https://fontawesome.com License - https://fontawesome.com/license (Commercial License) Copyright 2023 Fonticons, Inc. --><path d="M0 40c0-4.4 3.6-8 8-8H32 48 208h16 24c4.4 0 8 3.6 8 8s-3.6 8-8 8H224V266.8c-6.1 8.7-11.5 18-16 27.8V208H48V384c0 44.2 35.8 80 80 80c31.4 0 58.6-18.1 71.7-44.4c2 6.6 4.4 13 7.1 19.2C189.5 463.7 160.6 480 128 480c-53 0-96-43-96-96V48H8c-4.4 0-8-3.6-8-8zm48 8V192H208V48H48zM368 496a128 128 0 1 0 0-256 128 128 0 1 0 0 256zm0-272a144 144 0 1 1 0 288 144 144 0 1 1 0-288zm69.7 98.3c3.1 3.1 3.1 8.2 0 11.3l-80 80c-3.1 3.1-8.2 3.1-11.3 0l-48-48c-3.1-3.1-3.1-8.2 0-11.3s8.2-3.1 11.3 0L352 396.7l74.3-74.3c3.1-3.1 8.2-3.1 11.3 0z"/></svg>

<svg xmlns="http://www.w3.org/2000/svg" viewBox="0 0 512 512"><!--! Font Awesome Pro 6.3.0 by @fontawesome - https://fontawesome.com License - https://fontawesome.com/license (Commercial License) Copyright 2023 Fonticons, Inc. --><path d="M0 40C0 35.58 3.582 32 8 32H248C252.4 32 256 35.58 256 40C256 44.42 252.4 48 248 48H224V266.8C217.9 275.5 212.5 284.8 208 294.6V208H48V384C48 428.2 83.82 464 128 464C159.4 464 186.6 445.9 199.7 419.6C201.7 426.2 204.1 432.6 206.8 438.8C189.5 463.7 160.6 480 128 480C74.98 480 32 437 32 384V48H8C3.582 48 0 44.42 0 40V40zM48 48V192H208V48H48zM437.7 322.3C440.8 325.5 440.8 330.5 437.7 333.7L357.7 413.7C354.5 416.8 349.5 416.8 346.3 413.7L298.3 365.7C295.2 362.5 295.2 357.5 298.3 354.3C301.5 351.2 306.5 351.2 309.7 354.3L352 396.7L426.3 322.3C429.5 319.2 434.5 319.2 437.7 322.3H437.7zM224 368C224 288.5 288.5 224 368 224C447.5 224 512 288.5 512 368C512 447.5 447.5 512 368 512C288.5 512 224 447.5 224 368zM368 496C438.7 496 496 438.7 496 368C496 297.3 438.7 240 368 240C297.3 240 240 297.3 240 368C240 438.7 297.3 496 368 496z"/></svg>
